build/svg/cmd/sc_diagramdata.svg

<?xml version="1.0" encoding="UTF-8" standalone="no"?>
<svg
   xmlns:dc="http://purl.org/dc/elements/1.1/"
   xmlns:cc="http://creativecommons.org/ns#"
   xmlns:rdf="http://www.w3.org/1999/02/22-rdf-syntax-ns#"
   xmlns:svg="http://www.w3.org/2000/svg"
   xmlns="http://www.w3.org/2000/svg"
   xmlns:xlink="http://www.w3.org/1999/xlink"
   xmlns:sodipodi="http://sodipodi.sourceforge.net/DTD/sodipodi-0.dtd"
   xmlns:inkscape="http://www.inkscape.org/namespaces/inkscape"
   viewBox="0 0 16 16"
   version="1.1"
   id="svg4"
   sodipodi:docname="sc_diagramdata.svg"
   inkscape:export-filename="/home/jupiter007/Libreoffice yaru theme fullcolor/build/cmd/sc_diagramdata.png"
   inkscape:export-xdpi="95"
   inkscape:export-ydpi="95"
   inkscape:version="0.92.5 (2060ec1f9f, 2020-04-08)"><metadata
   id="metadata10">
  <rdf:RDF>
    <cc:Work
       rdf:about="">
      <dc:format>image/svg+xml</dc:format>
      <dc:type
         rdf:resource="http://purl.org/dc/dcmitype/StillImage" />
    </cc:Work>
  </rdf:RDF>
</metadata>
<defs
   id="defs8">
  <linearGradient
     id="h"
     gradientTransform="matrix(0.19316349,0,0,0.19196371,-9.3361331,16.251952)"
     gradientUnits="userSpaceOnUse"
     spreadMethod="reflect"
     x1="103.95"
     x2="89.424004"
     xlink:href="#i"
     y1="-7.6659999"
     y2="-7.6659999" />
  <linearGradient
     id="i">
    <stop
       offset="0"
       stop-color="#868688"
       id="stop30" />
    <stop
       offset="1"
       stop-color="#d9d9da"
       id="stop32" />
  </linearGradient>
  <linearGradient
     id="j"
     gradientTransform="matrix(0.42194524,0,0,0.44406606,-28.984669,3.615341)"
     gradientUnits="userSpaceOnUse"
     x1="89.017998"
     x2="89.017998"
     xlink:href="#k"
     y1="22.537001"
     y2="27.546" />
  <linearGradient
     id="k">
    <stop
       offset="0"
       stop-color="#a0a0a0"
       id="stop36" />
    <stop
       offset="1"
       stop-color="#4a4a4a"
       id="stop38" />
  </linearGradient>
  <linearGradient
     id="l"
     gradientTransform="matrix(0.19316349,0,0,0.19196371,-9.3361331,13.252519)"
     gradientUnits="userSpaceOnUse"
     spreadMethod="reflect"
     x1="103.95"
     x2="89.424004"
     xlink:href="#i"
     y1="-7.6659999"
     y2="-7.6659999" />
  <linearGradient
     id="m"
     gradientTransform="matrix(0.42194524,0,0,0.44406606,-28.984669,0.61590796)"
     gradientUnits="userSpaceOnUse"
     x1="89.017998"
     x2="89.017998"
     xlink:href="#k"
     y1="22.537001"
     y2="27.546" />
  <linearGradient
     id="n"
     gradientTransform="matrix(0.19316349,0,0,0.18896428,-9.3361331,10.293579)"
     gradientUnits="userSpaceOnUse"
     spreadMethod="reflect"
     x1="103.95"
     x2="89.424004"
     xlink:href="#i"
     y1="-7.6659999"
     y2="-7.6659999" />
  <linearGradient
     id="o"
     gradientTransform="matrix(0.42194524,0,0,0.43716737,-28.984669,-2.1465699)"
     gradientUnits="userSpaceOnUse"
     x1="89.017998"
     x2="89.017998"
     xlink:href="#k"
     y1="22.537001"
     y2="27.546" />
  <linearGradient
     id="p"
     gradientTransform="matrix(0.19421329,0,0,0.14622236,-9.432115,7.8542897)"
     gradientUnits="userSpaceOnUse"
     spreadMethod="reflect"
     x1="102.308"
     x2="102.308"
     y1="-2.3929999"
     y2="-24.582001">
    <stop
       offset="0"
       stop-color="#a5a6a8"
       id="stop45" />
    <stop
       offset="1"
       stop-color="#e8e8e8"
       id="stop47" />
  </linearGradient>
  <linearGradient
     id="q"
     gradientTransform="matrix(0.19421329,0,0,0.14622236,-9.432115,7.8542897)"
     gradientUnits="userSpaceOnUse"
     x1="109.956"
     x2="109.956"
     y1="-24.910999"
     y2="-2.3759999">
    <stop
       offset="0"
       stop-color="#b3b3b3"
       id="stop50" />
    <stop
       offset="1"
       stop-color="#dadada"
       id="stop52" />
  </linearGradient>
  <linearGradient
     id="r"
     gradientTransform="matrix(0.23568045,0,0,0.25645152,5.0941392,3.715822)"
     gradientUnits="userSpaceOnUse"
     x1="21.381001"
     x2="21.381001"
     y1="5.052"
     y2="44.137001">
    <stop
       offset="0"
       stop-color="#fff"
       id="stop55" />
    <stop
       offset=".081"
       stop-color="#fff"
       stop-opacity=".235"
       id="stop57" />
    <stop
       offset=".923"
       stop-color="#fff"
       stop-opacity=".157"
       id="stop59" />
    <stop
       offset="1"
       stop-color="#fff"
       stop-opacity=".392"
       id="stop61" />
  </linearGradient>
</defs>
<sodipodi:namedview
   pagecolor="#ffffff"
   bordercolor="#666666"
   borderopacity="1"
   objecttolerance="10"
   gridtolerance="10"
   guidetolerance="10"
   inkscape:pageopacity="0"
   inkscape:pageshadow="2"
   inkscape:window-width="1920"
   inkscape:window-height="1011"
   id="namedview6"
   showgrid="true"
   inkscape:zoom="29.5"
   inkscape:cx="9.501531"
   inkscape:cy="4.8284271"
   inkscape:window-x="0"
   inkscape:window-y="32"
   inkscape:window-maximized="1"
   inkscape:current-layer="svg4">
  <inkscape:grid
     type="xygrid"
     id="grid912" />
</sodipodi:namedview>
/&amp;gt;<path
   style="fill:#f2cbf8;fill-opacity:1;stroke-width:0.91666681"
   id="path817"
   d="M 7.9999998,2.5 C 4.9624341,2.5 2.5000002,3.3208113 2.5000002,4.333333 v 7.333333 C 2.5000002,12.679188 4.9624341,13.5 7.9999998,13.5 11.037565,13.5 13.5,12.679188 13.5,11.666666 V 4.333333 C 13.5,3.3208113 11.037565,2.5 7.9999998,2.5 Z"
   inkscape:connector-curvature="0"
   sodipodi:nodetypes="sssssss" />
<path
   inkscape:connector-curvature="0"
   d="M 7.9999998,2 A 6,2 0 0 0 2.0000002,4 v 8 A 6,2 0 0 0 7.9999998,14 6,2 0 0 0 14,12 V 4 A 6,2 0 0 0 7.9999998,2 Z m 0,1 A 5,1 0 0 1 13,4 5,1 0 0 1 7.9999998,5 5,1 0 0 1 3.0000002,4 5,1 0 0 1 7.9999998,3 Z M 3.0000002,5.101563 A 6,2 0 0 0 7.9999998,6 6,2 0 0 0 13,5.103516 V 8 A 5,1 0 0 1 7.9999998,9 5,1 0 0 1 3.0000002,8 Z m 0,4 A 6,2 0 0 0 7.9999998,10 6,2 0 0 0 13,9.103516 V 12 A 5,1 0 0 1 7.9999998,13 5,1 0 0 1 3.0000002,12 Z"
   id="path2-5"
   style="fill:#8e03a3;fill-opacity:1" />
</svg>

<svg xmlns="http://www.w3.org/2000/svg" viewBox="0 0 16 16"><defs><linearGradient id="a"><stop offset="0" stop-color="#868688"/><stop offset="1" stop-color="#d9d9da"/></linearGradient><linearGradient id="b"><stop offset="0" stop-color="#a0a0a0"/><stop offset="1" stop-color="#4a4a4a"/></linearGradient></defs>/&amp;gt;<path d="M8 2.5c-3.038 0-5.5.82-5.5 1.833v7.334C2.5 12.679 4.962 13.5 8 13.5s5.5-.82 5.5-1.833V4.333C13.5 3.321 11.038 2.5 8 2.5z" fill="#f2cbf8"/><path d="M8 2a6 2 0 00-6 2v8a6 2 0 006 2 6 2 0 006-2V4a6 2 0 00-6-2zm0 1a5 1 0 015 1 5 1 0 01-5 1 5 1 0 01-5-1 5 1 0 015-1zM3 5.102A6 2 0 008 6a6 2 0 005-.896V8a5 1 0 01-5 1 5 1 0 01-5-1zm0 4A6 2 0 008 10a6 2 0 005-.896V12a5 1 0 01-5 1 5 1 0 01-5-1z" fill="#8e03a3"/></svg>
